!!!COM: Scarlatti, Domenico
!!!CDT: 1685///-1757///
!!!OTL: Sonata in G Minor, K.476, L.340
!!!SCT: K. 476
!!!SCT: L. 340
**kern	**kern	**dynam
*staff2	*staff1	*staff1/2
*Icemba	*Icemba	*Icemba
*>[A,A,B,B]	*>[A,A,B,B]	*>[A,A,B,B]
*>norep[A,B]	*>norep[A,B]	*>norep[A,B]
*>A	*>A	*>A
*clefF4	*clefG2	*clefG2
*k[b-e-]	*k[b-e-]	*k[b-e-]
*g:	*g:	*g:
*M3/8	*M3/8	*M3/8
*MM132	*MM132	*MM132
=1-	=1-	=1-
4.GG/	(8gg\L	mf
.	8dd\	.
.	8b-\J)	.
=2	=2	=2
4.G\ 4.c\ 4.e-\	(8ee-\L	.
.	8cc\	.
.	8a\J)	.
=3	=3	=3
4.G\ 4.B-\ 4.d\	(8dd\L	.
.	8b-\	.
.	8g\J)	.
=4	=4	=4
4.G\ 4.A\ 4.c\	(8cc/L	.
.	8a/	.
.	8f#/J)	.
=5	=5	=5
*	*^	*
4G\ 4B-\	4b-/	(8g\L	.
.	.	8d\)	.
8C'\ 8G'\	8a/	8e-\J	.
*	*v	*v	*
=6	=6	=6
4BB-\ 4G\	(8g/L	.
.	8d/)	.
8C'\ 8G'\	8e-'/ 8a'/J	.
=7	=7	=7
4BB-\ 4G\	(8g/L	.
.	8d/)	.
8C'\ 8G'\	8e-'/ 8a'/J	.
=8	=8	=8
4BB-\ 4G\	(8g/L	.
.	8d/)	.
8C'\ 8G'\	8e-'/ 8a'/J	.
=9	=9	=9
(8BB-/ 8G/L	(8g/L	.
8AA/) 8F#/	8a/)	.
8GG'/ 8G'/J	8g'/ 8b-'/J	.
=10	=10	=10
4C/	(8a/ 8cc/L	.
.	8g/) 8b-/	.
8D'/	8f#'/ 8a'/J	.
=11	=11	=11
*	*^	*
4GG/ 4G/	(8b-/L	4g\	<
.	8dd/	.	.
8C'\ 8G'\	8ee-'/J)	8f#\	.
=12	=12	=12	=12
4BB-\ 4G\	(8ee-/L	4g\	.
.	8dd/	.	.
8C'\ 8G'\	8ee-'/J)	8f#\	.
=13	=13	=13	=13
4BB-\ 4G\	8ee-/L	4g\	.
.	8dd/	.	.
8C'\ 8G'\	8ee-'/J	8f#\	.
=14	=14	=14	=14
4BB-\ 4G\	(8ee-/L	4g\	.
.	8dd/	.	.
8C'\ 8G'\	8ee-'/J)	8f#\	.
=15	=15	=15	=15
4BB-\ 4G\	8dd/L	4g\	.
.	8cc/	.	.
8BB-'\ 8G'\	8b-'/J	8g\	.
*	*v	*v	*
=16	=16	=16
4C/	(8a/ 8cc/L	.
.	8g/) 8b-/	.
8D'\	8f#'/ 8a'/J	.
=17	=17	=17
8GG/	8g'/L	f
8g'\L	8b-'/	.
8d'\J	8dd'/J	.
=18	=18	=18
8B-'\L	8gg'\L	.
8G'\	8bb-'\	.
8D'\J	8ddd'\J	.
=19	=19	=19
8GG'^/	8ggg'^\L	.
8g'\L	8b-'\	.
8d'\J	8dd'\J	.
=20	=20	=20
8B-'\L	8gg'\L	.
8G'\	8bb-'\	.
8D'\J	8ddd'\J	.
=21	=21	=21
8GG'^/	8ggg'^\L	.
8g'\L	8b-'\	.
8d'\J	8dd'\J	.
=22	=22	=22
8B-'\L	8gg\L	.
8G'\	8bb-'\	.
8D'\J	8ddd'\J	.
=23	=23	=23
8GG'/	4.ggg^\	.
*clefG2	.	.
8g'/L	.	.
8g'/J	.	.
=24	=24	=24
*^	*	*
.	.	(bb-q/	.
8f/L	(4.f\	4.aa-\)	mf
8dd/	.	.	.
8cc/J)	.	.	.
=25	=25	=25	=25
(8bn/L	4f\	4dd\	.
8g/)	.	.	.
8cc/J	8e-\	8gg'\	.
*v	*v	*	*
=26	=26	=26
4f/ 4cc/	(8ff\L	.
.	8ee-\)	.
8g'/ 8bn'/	8dd'\J	.
=27	=27	=27
.	(ffq/	.
4.c^/	(8ee-\L)	>
.	8dd\)	.
.	8cc'\J	.
=28	=28	=28
*^	*	*
.	.	(cccq/	.
8g/L	(4.g\	4.bb-\)	.
8een/	.	.	.
8dd/J)	.	.	.
=29	=29	=29	=29
8cc#/L	4g\	4een\	.
8a/	.	.	.
8dd'/J	8f'\	8aa'\	.
*v	*v	*	*
=30	=30	=30
4g/ 4dd/	(8gg\L	.
.	8ff\)	.
8a'/ 8cc#'/	8een\J	.
=31	=31	=31
4.d^/	16ff\LL	>
.	16dd\	.
.	16cc#\	.
.	16dd\	.
.	16cc#\	.
.	16dd\JJ	.
=32	=32	=32
8b-'/L	16een\LL	p
.	16dd\	.
8a'/	16ff\	.
.	16dd\	.
8g'/J	16gg\	.
.	16dd\JJ	.
=33	=33	=33
8f'/L	16aa\LL	<
.	16dd\	.
8en'/	16cc#\	.
.	16dd\	.
8d'/J	16cc#\	.
.	16dd\JJ	.
=34	=34	=34
8b-'/L	16een\LL	.
.	16dd\	.
8a'/	16ff\	.
.	16dd\	.
8g'/J	16gg\	.
.	16dd\JJ	.
=35	=35	=35
8f'/L	16aa\LL	.
.	16dd\	.
8en'/	16cc#\	.
.	16dd\	.
8d'/J	16cc#\	.
.	16dd\JJ	.
=36	=36	=36
8b-'/L	16een\LL	.
.	16dd\	.
8a'/	16ff\	.
.	16dd\	.
8g/J	16gg\	.
.	16dd\JJ	.
=37	=37	=37
4.f^/ 4.a^/	16aa\LL	f
.	16gg\	.
.	16ff\	.
.	16een\	.
.	16dd\	.
.	16cc\JJ	.
*clefF4	*	*
=38	=38	=38
4.G^\	16b-/LL	.
.	16a/	.
.	16g/	.
.	16f/	.
.	16en/	.
.	16d/JJ	.
=39	=39	=39
4.AA^/	4.A/	.
=40	=40	=40
(16d\LL	[4.aa\	p
16c#\	.	.
16en\	.	.
16d\	.	.
16f\	.	.
16e\JJ)	.	.
=41	=41	=41
4.AA^/	(16aa\LL]	<
.	16een\	.
.	16cc#\	.
.	16a\	.
.	16cc#\	.
.	16ee\JJ	.
=42	=42	=42
(16d\LL	[4.aa\)	.
16c#\	.	.
16en\	.	.
16d\	.	.
16f\	.	.
16e\JJ)	.	.
=43	=43	=43
4.GG^/	(16aa\LL]	.
.	16een\	.
.	16cc#\	.
.	16a\	.
.	16cc#\	.
.	16ee\JJ	.
=44	=44	=44
(16en\LL	[4.aa\)	.
16d\	.	.
16f\	.	.
16e\	.	.
16g\	.	.
16f\JJ)	.	.
=45	=45	=45
4.FF^/	(16aa\LL]	.
.	16ff\	.
.	16dd\	.
.	16a\	.
.	16dd\	.
.	16ff\JJ	.
=46	=46	=46
(16f\LL	[4.aa\)	.
16en\	.	.
16g\	.	.
16f\	.	.
16a\	.	.
16g\JJ)	.	.
=47	=47	=47
4.EEn^/	(16aa\LL]	.
.	16een\	.
.	16cc#\	.
.	16a\	.
.	16cc#\	.
.	16ee\JJ	.
=48	=48	=48
(16g\LL	[4.aa\)	.
16f\	.	.
16a\	.	.
16g\	.	.
16b-\	.	.
16a\JJ)	.	.
=49	=49	=49
4.DD/	(16aa\LL]	f
.	16dd\	.
.	16ddd\	.
.	16cccn\	.
.	16bb-\	.
.	16aa\JJ	.
=50	=50	=50
4.GG/	16bb-\LL	.
.	16aa\	.
.	16gg\	.
.	16ff\	.
.	16een\	.
.	16dd\JJ	.
=51	=51	=51
4.AA/	16cc#/LL	.
.	16b-/	.
.	16a/	.
.	16g/	.
.	16f/	.
.	16en/JJ	.
=52	=52	=52
8D'/L	16f/LL	.
.	16g/	.
8GG'/	16a/	.
.	16d/	.
8AA'/J	16c#/	.
.	16en/JJ	.
=53	=53	=53
4.DD/	16d/LL	.
.	16A/	.
.	16f/	.
.	16d/	.
.	16a/	.
.	16f/JJ	.
=54	=54	=54
(16d\LL	[4.aa^\)	>
16c#\	.	.
16en\	.	.
16d\	.	.
16f\	.	.
16e\JJ)	.	.
=55	=55	=55
4.AA/	(16aa\LL]	p
.	16een\	.
.	16cc#\	.
.	16a\	.
.	16cc#\	.
.	16ee\JJ	<
=56	=56	=56
(16d\LL	[4.aa\)	.
16c#\	.	.
16en\	.	.
16d\	.	.
16f\	.	.
16e\JJ)	.	.
=57	=57	=57
4.GG/	(16aa\LL]	.
.	16een\	.
.	16cc#\	.
.	16a\	.
.	16cc#\	.
.	16ee\JJ	.
=58	=58	=58
(16en\LL	[4.aa\)	.
16d\	.	.
16f\	.	.
16e\	.	.
16g\	.	.
16f\JJ)	.	.
=59	=59	=59
4.FF/	(16aa\LL]	.
.	16ff\	.
.	16dd\	.
.	16a\	.
.	16dd\	.
.	16ff\JJ	.
=60	=60	=60
(16f\LL	[4.aa\)	.
16en\	.	.
16g\	.	.
16f\	.	.
16a\	.	.
16g\JJ)	.	.
=61	=61	=61
4.EEn/	(16aa\LL]	.
.	16een\	.
.	16cc#\	.
.	16a\	.
.	16cc#\	.
.	16ee\JJ	.
=62	=62	=62
(16g\LL	[4.aa\)	.
16f\	.	.
16a\	.	.
16g\	.	.
16b-\	.	.
16a\JJ)	.	.
=63	=63	=63
4.DD/	(16aa\LL]	f
.	16dd\	.
.	16ddd\	.
.	16cccn\	.
.	16bb-\	.
.	16aa\JJ	.
=64	=64	=64
4.GG/	16bb-\LL	.
.	16aa\	.
.	16gg\	.
.	16ff\	.
.	16een\	.
.	16dd\JJ	.
=65	=65	=65
4.AA/	16cc#/LL	.
.	16b-/	.
.	16a/	.
.	16g/	.
.	16f/	.
.	16en/JJ	.
=66	=66	=66
8D'/L	16f/LL	.
.	16g/	.
8GG'/	16a/	.
.	16d/	.
8AA'/J	16c#/	.
.	16en/JJ	.
=67	=67	=67
16r	4.d/)	p
(16D\LL	.	.
16En\	.	.
16F\	.	.
16G\	.	.
16A\JJ	.	.
=68	=68	=68
16Bn\LL	4.r	.
16c#\	.	.
16d\	.	.
16en\	.	.
16f\	.	.
16g\JJ)	.	.
=69	=69	=69
*	*^	*
(4AA/	8r	8r	.
.	8cc#/ 8een/ (8gg/L	4a\	f
8D/)	8dd/ 8ff/J)	.	.
*	*v	*v	*
=70	=70	=70
4GG/	8g'/ 8een'/L	.
.	8f'/ 8dd'/	.
8AA'/	8en'/ 8cc#'/J	.
=71	=71	=71
16r	4.d/ 4.dd/	p
(16D\LL	.	.
16En\	.	.
16F\	.	.
16G\	.	.
16A\JJ	.	.
=72	=72	=72
16Bn\LL	4.r	.
16c#\	.	.
16d\	.	.
16en\	.	.
16f\	.	.
16g\JJ)	.	.
=73	=73	=73
*	*^	*
(4AA/	8r	8r	.
.	8cc#/ 8een/ (8gg/L	4a\	f
8D/)	8dd/ 8ff/J)	.	.
*	*v	*v	*
=74	=74	=74
4GG/	8g'/ 8een'/L	.
.	8f'/ 8dd'/	.
8AA'/	8en'/ 8cc#'/J	.
=75	=75	=75
4.DD/	(16dd\LL	.
.	16a\	.
.	16bn\	.
.	16cc#\	.
.	16dd\	.
.	16een\JJ	.
=76	=76	=76
*^	*	*
4.d/	4F\	16ff\LL	.
.	.	16gg\	.
.	.	16aa\	.
.	.	16bbn\	.
.	8G\	16ccc#\	.
.	.	16ddd\JJ	.
*v	*v	*	*
=77	=77	=77
4A\	8aa\L	.
.	8gg\)	.
8B-'\	8ff'\J	.
=78	=78	=78
8G'\L	8een'\L	.
8A'\	8dd'\	.
8AA\J	8cc#'\J	.
=79	=79	=79
4.D^\	16dd'\	.
.	(16A/LL	.
.	16Bn/	.
.	16c#/	.
.	16d/	.
.	16en/JJ	.
=80	=80	=80
4FF/	16f/LL	.
.	16g/	.
.	16a/	.
.	16bn/	.
8GG/	16cc#/	.
.	16dd/JJ	.
=81	=81	=81
4AA/	8a/L	.
.	8g/)	.
8BB-'/	8f'/J	.
=82	=82	=82
8GG'/L	8en'/L	.
8AA'/	8d'/	.
8AAA'/J	8c#'/J	.
=83	=83	=83
4.DD^/	4.d^/	.
=84:|!|:	=84:|!|:	=84:|!|:
*>B	*>B	*>B
4.DD/	16r	.
.	(16d/LL	p
.	16e-/	.
.	16d/	.
.	16en/	.
.	16d/JJ	.
=85	=85	=85
8D'\ 8c'\L	16f#/LL	<
.	16d/	.
8D'\ 8B-'\	16g/	.
.	16d/	.
8D'\ 8A'\J	16a/	.
.	16d/JJ	.
=86	=86	=86
4.D\ 4.G\	16b-/LL)	.
.	(16d/	.
.	16e-/	.
.	16d/	.
.	16en/	.
.	16d/JJ	.
=87	=87	=87
8D'\ 8c'\L	16f#/LL	.
.	16d/	<
8D'\ 8B-'\	16g/	.
.	16d/	.
8D'\ 8A'\J	16a/	.
.	16d/JJ	.
=88	=88	=88
4.G\	16b-/LL)	<
.	(16e-/	.
.	16f/	.
.	16e-/	.
.	16g/	.
.	16f/JJ	.
=89	=89	=89
8F'\ 8e-'\L	16a/LL	<
.	16f/	.
8F'\ 8d'\	16b-/	.
.	16f/	.
8F'\ 8c'\J	16cc/	.
.	16f/JJ	.
=90	=90	=90
4.F\ 4.B-\	16dd/LL)	.
.	(16e-/	.
.	16f/	.
.	16e-/	.
.	16g/	.
.	16f/JJ	.
=91	=91	=91
8F'\ 8e-'\L	16a/LL	<
.	16f/	.
8F'\ 8d'\	16b-/	.
.	16f/	.
8F'\ 8c'\J	16cc/	.
.	16f/JJ	.
=92	=92	=92
4.B-\	16dd\LL)	.
.	(16a-\	.
.	16b-\	.
.	16a-\	.
.	16cc\	.
.	16b-\JJ	.
*clefG2	*	*
=93	=93	=93
8B-'/ 8a-'/L	16dd\LL	<
.	16b-\	.
8B-'/ 8g'/	16ee-\	.
.	16b-\	.
8B-'/ 8f'/J	16ff\	.
.	16b-\JJ	.
=94	=94	=94
4.B-/ 4.e-/	16gg\LL)	.
.	(16a-\	.
.	16b-\	.
.	16a-\	.
.	16cc\	.
.	16b-\JJ	.
=95	=95	=95
8B-'/ 8a-'/L	16dd\LL	<
.	16b-\	.
8B-'/ 8g'/	16ee-\	.
.	16b-\	.
8B-'/ 8f'/J	16ff\	.
.	16b-\JJ	.
*clefF4	*	*
=96	=96	=96
4.E-^\	(16gg\LL)	f
.	16ee-\	.
.	16b-\	.
.	16g\	.
.	16b-\	.
.	16ee-\JJ	.
=97	=97	=97
4.EE-^/	16gg\LL	.
.	16ee-\	.
.	16b-\	.
.	16g\	.
.	16b-\	.
.	16ee-\JJ	.
=98	=98	=98
4.EE-^/	16gg\LL	.
.	16ee-\	.
.	16b-\	.
.	16g\	.
.	16b-\	.
.	16ee-\JJ	.
=99	=99	=99
8EE-'/	16gg\LL	.
.	16bb-\JJ	.
8r	8gg'\)	.
8r	8r	.
=100	=100	=100
4.r;	4.r;	.
=101	=101	=101
4.AAA^/	(16gg\LL	f
.	16een\	.
.	16cc#\	.
.	16a\	.
.	16cc#\	.
.	16ee\JJ	.
=102	=102	=102
4.AAA^/	16gg\LL	.
.	16een\	.
.	16cc#\	.
.	16a\	.
.	16cc#\	.
.	16ee\JJ	.
=103	=103	=103
4.AAA^/	16gg\LL	.
.	16een\	.
.	16cc#\	.
.	16a\	.
.	16cc#\	.
.	16ee\JJ	.
=104	=104	=104
8AAA'/	16gg\LL	.
.	16bb-\JJ	.
8r	8gg'\)	.
8r	8r	.
=105	=105	=105
4.r;	4.r;	.
=106	=106	=106
4.DD^/	(16aa\LL	f
.	16ff#\	.
.	16cc\	.
.	16a\	.
.	16cc\	.
.	16ff#\JJ	.
=107	=107	=107
4.DD^/	16aa\LL	.
.	16ff#\	.
.	16cc\	.
.	16a\	.
.	16cc\	.
.	16ff#\JJ	.
=108	=108	=108
4.DD^/	16aa\LL	.
.	16ff#\	.
.	16cc\	.
.	16a\	.
.	16cc\	.
.	16ff#\JJ	.
=109	=109	=109
8DD'/	16aa\LL	.
.	16ccc\JJ	.
8r	8aa'\)	.
8r	8r	.
=110	=110	=110
4.r;	4.r;	.
=111	=111	=111
8GG'/L	(16ddd\LL	f
.	16ccc\	.
8AA'/	16bb-\	.
.	16aa\	.
8BB-'/J	16gg\	.
.	16ff\JJ	.
=112	=112	=112
8C\L	16ee-\LL	.
.	16dd\	.
8D'\	16cc\	.
.	16b-\	.
8E-'\J	16a\	.
.	16g\JJ	.
=113	=113	=113
8D'\L	16f#/LL	.
.	16e-/	.
8En'\	16d/	.
.	16c/	.
8F#'\J	16B-/	.
.	16A/JJ	.
=114	=114	=114
8G'\L	16B-/LL	.
.	16d/	.
8Fn'\	16A/	.
.	16d/	.
8E-'\J	16G/	.
.	16g/JJ)	.
=115	=115	=115
4.D^\	(8g/L	.
.	16f#/L	.
.	16en/J	.
.	8d'/J)	.
*clefG2	*	*
=116	=116	=116
(16g/LL	[4.ddd\	p
16f#/	.	.
16a/	.	.
16g/	.	.
16b-/	.	.
16a/JJ)	.	.
*clefF4	*	*
=117	=117	=117
4.D/	(16ddd\LL]	<
.	16aa\	.
.	16ff#\	.
.	16dd\	.
.	16ff#\	.
.	16aa\JJ	.
*clefG2	*	*
=118	=118	=118
(16g/LL	[4.ddd\)	.
16f#/	.	.
16a/	.	.
16g/	.	.
16b-/	.	.
16a/JJ)	.	.
*clefF4	*	*
=119	=119	=119
4.C^/	(16ddd\LL]	.
.	16aa\	.
.	16ff#\	.
.	16dd\	.
.	16ff#\	.
.	16aa\JJ	.
*clefG2	*	*
=120	=120	=120
(16a/LL	[4.ddd\)	.
16g/	.	.
16b-/	.	.
16a/	.	.
16cc/	.	.
16b-/JJ)	.	.
*clefF4	*	*
=121	=121	=121
4.BB-^/	(16ddd\LL]	.
.	16bb-\	.
.	16gg\	.
.	16dd\	.
.	16gg\	.
.	16bb-\JJ	.
*clefG2	*	*
=122	=122	=122
(16b-\LL	[4.ddd\)	.
16a\	.	.
16cc\	.	.
16b-\	.	.
16dd\	.	.
16cc\JJ)	.	.
*clefF4	*	*
=123	=123	=123
4.AA^/	(16ddd\LL]	.
.	16aa\	.
.	16ff#\	.
.	16dd\	.
.	16ff#\	.
.	16aa\JJ	.
*clefG2	*	*
=124	=124	=124
(16cc\LL	[4.ddd\)	.
16b-\	.	.
16dd\	.	.
16cc\	.	.
16ee-\	.	.
16dd\JJ)	.	.
*clefF4	*	*
=125	=125	=125
4.GG^/	(16ddd\LL]	f
.	16ccc\	.
.	16bb-\	.
.	16aa\	.
.	16gg\	.
.	16ffn\JJ	.
=126	=126	=126
4.C/	16ee-\LL	.
.	16dd\	.
.	16cc\	.
.	16b-\	.
.	16a\	.
.	16g\JJ	.
=127	=127	=127
4.D\	16f#\LL	.
.	16ee-\	.
.	16dd\	.
.	16cc\	.
.	16b-\	.
.	16a\JJ	.
=128	=128	=128
8G'\L	16b-/LL	.
.	16cc/	.
8C'\	16dd/	.
.	16g/	.
8D'\J	16f#/	.
.	16a/JJ	.
=129	=129	=129
4.GG^/	16g/LL	.
.	16d/	.
.	16b-/	.
.	16g/	.
.	16dd/	.
.	16b-/JJ)	.
*clefG2	*	*
=130	=130	=130
(16g/LL	[4.ddd\	>
16f#/	.	.
16a/	.	.
16g/	.	.
16b-/	.	.
16a/JJ)	.	.
*clefF4	*	*
=131	=131	=131
4.D^\	(16ddd\LL]	p
.	16aa\	.
.	16ff#\	.
.	16dd\	.
.	16ff#\	.
.	16aa\JJ	.
*clefG2	*	*
=132	=132	=132
(16g/LL	[4.ddd\)	<
16f#/	.	.
16a/	.	.
16g/	.	.
16b-/	.	.
16a/JJ)	.	.
=133	=133	=133
4.a^/	(16ddd\LL]	.
.	16aa\	.
.	16ff#\	.
.	16dd\	.
.	16ff#\	.
.	16aa\JJ	.
*clefG2	*	*
=134	=134	=134
(16a/LL	[4.ddd\)	.
16g/	.	.
16b-/	.	.
16a/	.	.
16cc/	.	.
16b-/JJ)	.	.
*clefF4	*	*
=135	=135	=135
4.BB-^/	(16ddd\LL]	.
.	16bb-\	.
.	16gg\	.
.	16dd\	.
.	16gg\	.
.	16bb-\JJ	.
*clefG2	*	*
=136	=136	=136
(16b-\LL	[4.ddd\)	.
(16a\)	.	.
16cc\	.	.
16b-\	.	.
16dd\	.	.
16cc\JJ)	.	.
*clefF4	*	*
=137	=137	=137
4.AA^/	(16ddd\LL]	.
.	16aa\	.
.	16ff#\	.
.	16dd\	.
.	16ff#\	.
.	16aa\JJ	.
*clefG2	*	*
=138	=138	=138
(16cc\LL	[4.ddd\)	.
16b-\	.	.
16dd\	.	.
16cc\	.	.
16ee-\	.	.
16dd\JJ)	.	.
*clefF4	*	*
=139	=139	=139
(4.GG^/	16ddd\LL]	f
.	16ccc\	.
.	16bb-\	.
.	16aa\	.
.	16gg\	.
.	16ffn\JJ	.
=140	=140	=140
4.C/	16ee-\LL	.
.	16dd\	.
.	16cc\	.
.	16b-\	.
.	16a\	.
.	16g\JJ	.
=141	=141	=141
4.D\	16f#\LL	.
.	16ee-\	.
.	16dd\	.
.	16cc\	.
.	16b-\	.
.	16a\JJ	.
=142	=142	=142
8G'\L)	16b-/LL	.
.	16cc/	.
8C'\	16dd/	.
.	16g/	.
8D'\J	16f#/	.
.	16a/JJ	.
=143	=143	=143
16r	4.g/	p
(16G\LL	.	.
16A\	.	.
16B-\	.	.
16c\	.	.
16d\JJ	.	.
*clefG2	*	*
=144	=144	=144
16en/LL	4.r	.
16f#/	.	.
16g/	.	.
16a/	.	.
16b-/	.	.
16cc/JJ)	.	.
*clefF4	*	*
=145	=145	=145
*	*^	*
(4D\	8r	4.d^\	f
.	8f#/ 8a/ (8cc/L	.	.
8G\)	8g/ 8b-/J)	.	.
*	*v	*v	*
=146	=146	=146
4C/	8c'/ 8a'/L	.
.	8B-'/ 8g'/	.
8D'/	8A'/ 8f#'/J	.
=147	=147	=147
16r	4.G/ 4.g/	p
(16GG/LL	.	.
16AA/	.	.
16BB-/	.	.
16C/	.	.
16D/JJ	.	.
=148	=148	=148
16En\LL	4.r	.
16F#\	.	.
16G\	.	.
16A\	.	.
16B-\	.	.
16c\JJ)	.	.
=149	=149	=149
*	*^	*
(4DD/	8r	4.d^\	f
.	8f#/ 8a/ (8cc/L	.	.
8GG/)	8g/ 8b-/J)	.	.
*	*v	*v	*
=150	=150	=150
4CC/	8c'/ 8a'/L	.
.	8B-'/ 8g'/	.
8DD'/	8A'/ 8f#'/J	.
=151	=151	=151
4.GG/ 4.G/	(16g/LL	.
.	16d/	.
.	16en/	.
.	16f#/	.
.	16g/	.
.	16a/JJ	.
=152	=152	=152
*^	*	*
4.G/	4BB-\	16b-\LL	.
.	.	16cc\	.
.	.	16dd\	.
.	.	16ee-\	.
.	8C\	16ff#\	.
.	.	16gg\JJ	.
*v	*v	*	*
=153	=153	=153
4D\	8dd\L	.
.	8cc\)	.
8E-'\	8b-'\J	.
=154	=154	=154
8C'/L	8a'/L	.
8D'/	8g'/	.
8DD'/J	8f#'/J	.
=155	=155	=155
4.GG/	(16g/LL	.
.	16d/	.
.	16en/	.
.	16f#/	.
.	16g/	.
.	16a/JJ	.
=156	=156	=156
*^	*	*
4.G/	4BB-\	16b-\LL	.
.	.	16cc\	.
.	.	16dd\	.
.	.	16ee-\	.
.	8C\	16ff#\	.
.	.	16gg\JJ	.
*v	*v	*	*
=157	=157	=157
4D\	8dd\L	.
.	8cc\)	.
8E-'\	8b-'\J	.
=158	=158	=158
8C'/L	8a'/L	.
8D'/	8g'/	.
8DD'/J	8f#'/J	.
=159	=159	=159
4.GGG^/	4.g^/	.
==:|!	==:|!	==:|!
*-	*-	*-
!!!ENC: Craig Stuart Sapp
!!!END: 2004/10/30/
